icons/evolvere-blue-folders-flat-vivid-dark-fallback/apps/64/birdie.svg

<?xml version="1.0" encoding="UTF-8" standalone="no"?>
<!-- Created with Inkscape (http://www.inkscape.org/) -->

<svg
   xmlns:dc="http://purl.org/dc/elements/1.1/"
   xmlns:cc="http://creativecommons.org/ns#"
   xmlns:rdf="http://www.w3.org/1999/02/22-rdf-syntax-ns#"
   xmlns:svg="http://www.w3.org/2000/svg"
   xmlns="http://www.w3.org/2000/svg"
   xmlns:xlink="http://www.w3.org/1999/xlink"
   xmlns:sodipodi="http://sodipodi.sourceforge.net/DTD/sodipodi-0.dtd"
   xmlns:inkscape="http://www.inkscape.org/namespaces/inkscape"
   width="64"
   height="64"
   id="svg13094"
   version="1.1"
   inkscape:version="0.91+devel r"
   sodipodi:docname="birdie.svg">
  <sodipodi:namedview
     id="base"
     pagecolor="#ffffff"
     bordercolor="#666666"
     borderopacity="1.0"
     inkscape:pageopacity="0"
     inkscape:pageshadow="2"
     inkscape:zoom="11.313709"
     inkscape:cx="35.538329"
     inkscape:cy="29.103805"
     inkscape:document-units="px"
     inkscape:current-layer="svg13094"
     showgrid="true"
     inkscape:snap-bbox="true"
     inkscape:bbox-paths="true"
     inkscape:bbox-nodes="true"
     inkscape:snap-bbox-edge-midpoints="true"
     inkscape:snap-bbox-midpoints="true"
     inkscape:object-paths="true"
     inkscape:snap-intersection-paths="true"
     inkscape:object-nodes="true"
     inkscape:snap-smooth-nodes="true"
     inkscape:snap-midpoints="true"
     inkscape:snap-object-midpoints="true"
     inkscape:snap-center="true"
     showguides="true"
     inkscape:guide-bbox="true"
     inkscape:window-width="1920"
     inkscape:window-height="1023"
     inkscape:window-x="-10"
     inkscape:window-y="35"
     inkscape:window-maximized="1"
     inkscape:snap-global="true"
     fit-margin-top="0"
     fit-margin-left="0"
     fit-margin-right="0"
     fit-margin-bottom="0"
     showborder="true"
     inkscape:showpageshadow="false"
     inkscape:snap-page="true">
    <inkscape:grid
       type="xygrid"
       id="grid3075"
       empspacing="5"
       visible="true"
       enabled="true"
       snapvisiblegridlinesonly="true"
       originx="1.6362304e-08px"
       originy="18px" />
  </sodipodi:namedview>
  <defs
     id="defs13096">
    <radialGradient
       r="19.99999"
       fy="-41.63142"
       fx="6.5013385"
       cy="-41.63142"
       cx="6.5013385"
       gradientTransform="matrix(0,3.4224277,-3.6506456,-9.3153219e-8,-129.20718,-72.085113)"
       gradientUnits="userSpaceOnUse"
       id="radialGradient4418"
       xlink:href="#linearGradient2867-449-88-871-390-598-476-591-434-148-57-177-3-8-8-5-3"
       inkscape:collect="always" />
    <linearGradient
       id="linearGradient2867-449-88-871-390-598-476-591-434-148-57-177-3-8-8-5-3">
      <stop
         offset="0"
         style="stop-color:#90dbec;stop-opacity:1;"
         id="stop3750-8-9-7-0-5" />
      <stop
         offset="0.26238"
         style="stop-color:#42baea;stop-opacity:1;"
         id="stop3752-3-2-9-2-5" />
      <stop
         offset="0.704952"
         style="stop-color:#3689e6;stop-opacity:1;"
         id="stop3754-7-2-1-1-23" />
      <stop
         offset="1"
         style="stop-color:#2b63a0;stop-opacity:1;"
         id="stop3756-9-3-9-2-3" />
    </linearGradient>
    <linearGradient
       id="linearGradient2867-449-88-871-390-598-476-591-434-148-57-177-3-8-8-5">
      <stop
         offset="0"
         style="stop-color:#90dbec;stop-opacity:1;"
         id="stop3750-8-9-7-0" />
      <stop
         offset="0.26238"
         style="stop-color:#42baea;stop-opacity:1;"
         id="stop3752-3-2-9-2" />
      <stop
         offset="0.704952"
         style="stop-color:#3689e6;stop-opacity:1;"
         id="stop3754-7-2-1-1" />
      <stop
         offset="1"
         style="stop-color:#2b63a0;stop-opacity:1;"
         id="stop3756-9-3-9-2" />
    </linearGradient>
    <radialGradient
       inkscape:collect="always"
       xlink:href="#linearGradient2867-449-88-871-390-598-476-591-434-148-57-177-3-8-8-5"
       id="radialGradient3377"
       gradientUnits="userSpaceOnUse"
       gradientTransform="matrix(0,3.4420259,-3.6715507,-9.3686652e-8,-152.86396,-134.3874)"
       cx="6.5013385"
       cy="-41.63142"
       fx="6.5013385"
       fy="-41.63142"
       r="19.99999" />
  </defs>
  <metadata
     id="metadata13099">
    <rdf:RDF>
      <cc:Work
         rdf:about="">
        <dc:format>image/svg+xml</dc:format>
        <dc:type
           rdf:resource="http://purl.org/dc/dcmitype/StillImage" />
        <dc:title></dc:title>
      </cc:Work>
    </rdf:RDF>
  </metadata>
  <path
     style="color:#000000;fill:#2f82e2;fill-opacity:1;fill-rule:nonzero;stroke:none;stroke-width:2.28571415;marker:none;visibility:visible;display:inline;overflow:visible;enable-background:accumulate"
     d="M 0 4 L 0 34 L 0 62 L 2 64 L 32 64 L 62 64 L 64 62 L 64 34 L 64 4 L 32 4 L 0 4 z "
     id="path6498" />
  <path
     style="color:#000000;fill:#65c7ff;fill-opacity:1;fill-rule:nonzero;stroke:none;marker:none;visibility:visible;display:inline;overflow:visible;enable-background:accumulate;stroke-width:2.28571415000000000"
     d="M 2 0 L 0 1 L 0 4 L 32 4 L 64 4 L 64 1 L 62 0 L 32 0 L 2 0 z "
     id="path6502" />
  <path
     style="fill:#88dbff;fill-opacity:1;fill-rule:nonzero"
     d="M 0,3 0,6 2,4 Z"
     id="path4298"
     inkscape:connector-curvature="0"
     sodipodi:nodetypes="cccc" />
  <path
     d="M 64,6 62,4 64,3 z"
     id="path3028"
     style="fill:#4ba5f1;fill-opacity:1"
     inkscape:connector-curvature="0" />
  <g
     id="g3043"
     inkscape:export-filename="folder.png"
     inkscape:export-xdpi="90"
     inkscape:export-ydpi="90"
     transform="translate(-0.62500009,0.082283)" />
  <g
     id="scalable"
     transform="matrix(1.0385892,0,0,1.0385892,1214.7222,1878.8121)"
     inkscape:label="#g3701"
     style="fill:#ffffff" />
  <ellipse
     cy="-52.630527"
     cx="7.506886"
     style="color:#000000;display:inline;overflow:visible;visibility:visible;fill:url(#radialGradient3377);fill-opacity:1;fill-rule:nonzero;stroke:#276dbc;stroke-width:0.88321567;stroke-linecap:round;stroke-linejoin:round;stroke-miterlimit:4;stroke-dasharray:none;stroke-dashoffset:0;stroke-opacity:1;marker:none;enable-background:accumulate"
     id="path3269"
     transform="matrix(-0.23149624,0.9728358,-0.93383486,-0.35770443,0,0)"
     rx="6.4627709"
     ry="6.40944" />
  <g
     id="g4695-6"
     transform="matrix(0.57595519,0.15481834,-0.0885127,0.59733084,-5.4038582,10.791068)">
    <circle
       r="25.986174"
       cy="-226.57303"
       cx="-88.741898"
       transform="matrix(0.38278113,0,0,0.39059302,125.96292,90.396267)"
       id="path4859-1-8"
       style="color:#000000;display:inline;overflow:visible;visibility:visible;fill:#2b3343;fill-opacity:1;fill-rule:evenodd;stroke:none;stroke-width:9.69999981;marker:none;enable-background:accumulate" />
    <ellipse
       ry="9.4575529"
       rx="8.3085051"
       cy="-237.26802"
       cx="-161.04356"
       transform="matrix(0.18254529,0.16846376,-0.25959989,0.28129929,56.473514,92.679367)"
       id="path4891-51-1"
       style="color:#000000;display:inline;overflow:visible;visibility:visible;opacity:1;fill:#c1f4ff;fill-opacity:1;fill-rule:evenodd;stroke:none;stroke-width:9.69999981;marker:none;enable-background:accumulate" />
    <path
       inkscape:connector-curvature="0"
       id="path4859-84-5-5"
       d="m 96.830104,-4.0364127 c 1.04183,1.13053 1.67805,2.60618 1.67805,4.21609001 0,3.56456999 -3.09279,6.45236999 -6.90241,6.45236999 -3.80961,0 -6.89122,-2.8878 -6.89122,-6.45236999 0,-1.45885001 0.51489,-2.80689001 1.38719,-3.88783001 -1.66852,1.41895 -2.71845,3.46867001 -2.71845,5.74455 0,4.28403 3.71109,7.75516 8.2896,7.75516 4.57852,0 8.289613,-3.47113 8.289613,-7.75516 0,-2.45789999 -1.226083,-4.65162 -3.132373,-6.07281 z"
       style="color:#000000;display:inline;overflow:visible;visibility:visible;opacity:0.36616163;fill:#00dbde;fill-opacity:1;fill-rule:evenodd;stroke:none;stroke-width:3.29999995;marker:none;enable-background:accumulate" />
  </g>
  <path
     style="color:#000000;display:inline;overflow:visible;visibility:visible;fill:#276dbc;fill-opacity:1;fill-rule:nonzero;stroke:none;stroke-width:1.06456649;marker:none;enable-background:accumulate"
     d="m 40.721656,26.386158 c -0.540804,3.61303 1.598739,7.439729 4.992099,8.745559 3.585436,1.379745 7.208358,-0.578967 8.10458,-4.362633 0.224054,-0.945917 0.255635,-1.915025 0.121264,-2.861078 -0.790561,1.694118 -2.37678,2.973688 -4.486825,3.348069 -3.559713,0.631594 -7.323759,-1.523734 -8.731118,-4.869917 z"
     id="path3269-0"
     inkscape:connector-curvature="0" />
  <ellipse
     cy="9.2062531"
     cx="30.250549"
     style="color:#000000;display:inline;overflow:visible;visibility:visible;fill:url(#radialGradient4418);fill-opacity:1;fill-rule:nonzero;stroke:#276dbc;stroke-width:0.88321573;stroke-linecap:round;stroke-linejoin:round;stroke-miterlimit:4;stroke-dasharray:none;stroke-dashoffset:0;stroke-opacity:1;marker:none;enable-background:accumulate"
     id="path3269-8"
     transform="matrix(0.23149622,0.9728358,0.93383486,-0.35770442,0,0)"
     rx="6.4259734"
     ry="6.3729458" />
  <g
     id="g4695-6-5"
     transform="matrix(-0.57267582,0.15393685,0.08800872,0.59392976,68.2241,10.884798)">
    <circle
       r="25.986174"
       cy="-226.57303"
       cx="-88.741898"
       transform="matrix(0.38278113,0,0,0.39059302,125.96292,90.396267)"
       id="path4859-1-8-1"
       style="color:#000000;display:inline;overflow:visible;visibility:visible;fill:#2b3343;fill-opacity:1;fill-rule:evenodd;stroke:none;stroke-width:9.69999981;marker:none;enable-background:accumulate" />
    <ellipse
       ry="9.4575529"
       rx="8.3085051"
       cy="-237.26802"
       cx="-161.04356"
       transform="matrix(-0.11876476,0.24655838,0.32285983,0.1303353,149.99903,68.439086)"
       id="path4891-51-1-4"
       style="color:#000000;display:inline;overflow:visible;visibility:visible;opacity:1;fill:#c1f4ff;fill-opacity:1;fill-rule:evenodd;stroke:none;stroke-width:9.69999981;marker:none;enable-background:accumulate" />
    <path
       inkscape:connector-curvature="0"
       id="path4859-84-5-5-1"
       d="m 96.830104,-4.0364127 c 1.04183,1.13053 1.67805,2.60618 1.67805,4.21609001 0,3.56456999 -3.09279,6.45236999 -6.90241,6.45236999 -3.80961,0 -6.89122,-2.8878 -6.89122,-6.45236999 0,-1.45885001 0.51489,-2.80689001 1.38719,-3.88783001 -1.66852,1.41895 -2.71845,3.46867001 -2.71845,5.74455 0,4.28403 3.71109,7.75516 8.2896,7.75516 4.57852,0 8.289613,-3.47113 8.289613,-7.75516 0,-2.45789999 -1.226083,-4.65162 -3.132373,-6.07281 z"
       style="color:#000000;display:inline;overflow:visible;visibility:visible;opacity:0.36616163;fill:#00dbde;fill-opacity:1;fill-rule:evenodd;stroke:none;stroke-width:3.29999995;marker:none;enable-background:accumulate" />
  </g>
  <path
     style="color:#000000;display:inline;overflow:visible;visibility:visible;fill:#276dbc;fill-opacity:1;fill-rule:nonzero;stroke:none;stroke-width:1.06456649;marker:none;enable-background:accumulate"
     d="m 22.250672,26.391254 c 0.537725,3.592459 -1.589635,7.397369 -4.963674,8.695763 -3.565022,1.37189 -7.167316,-0.575671 -8.0584348,-4.337793 -0.222778,-0.940531 -0.2541802,-1.904119 -0.1205738,-2.844786 0.7860588,1.684469 2.3632486,2.956756 4.4612766,3.329006 3.539446,0.627996 7.282061,-1.515059 8.681406,-4.84219 z"
     id="path3269-0-4"
     inkscape:connector-curvature="0" />
  <path
     sodipodi:nodetypes="ccscscccscsccccc"
     style="fill:#001c3d;fill-opacity:0.11717352;stroke:none;stroke-width:1.06456649"
     d="m 31.779249,37.486176 0.0049,0.01022 c 0.207565,0.0237 4.168401,-3.130106 7.215854,-2.496398 2.923771,0.607984 3.659801,4.9887 3.659801,4.9887 0,0 1.229507,2.968624 -0.98639,6.165169 -1.661925,2.397413 -3.048489,2.820503 -3.932216,2.845457 -0.121556,0.0039 -0.228246,-0.0095 -0.329262,-0.02012 -0.0037,-3.27e-4 -0.0068,3.15e-4 -0.01033,0 -0.761806,0.07056 -2.429708,-0.03879 -7.0927,-2.825283 C 24.959717,42.957365 21,37.999998 21,37.999998 c 0,0 3.465402,1.063017 5.793223,0.455034 2.426279,-0.633716 4.734344,-0.934942 4.918802,-0.958587 l -0.0049,-0.01022 c 0,0 0.02939,-1.68e-4 0.03089,0 0.0026,-3.04e-4 0.04121,0 0.04121,0 z"
     id="path4695-1-8"
     inkscape:connector-curvature="0" />
  <path
     style="fill:#c86f1d;fill-opacity:1;stroke:none;stroke-width:1.06456649"
     d="m 31.453884,36.87359 0,0.0071 c 0.178119,0.01316 2.410493,0.185571 4.898374,0.547684 2.386904,0.347279 3.877485,0.876244 3.877485,0.876244 0,0 -0.204925,1.695915 -3.643342,3.522143 -2.578812,1.369627 -4.027733,1.611353 -4.84217,1.625586 -0.112243,0 -0.203267,-0.0071 -0.290347,-0.0114 -0.003,-1.79e-4 -0.0064,1.79e-4 -0.0094,0 -0.723936,0.04007 -2.191377,-0.02273 -5.188718,-1.614104 -3.438418,-1.826167 -3.643337,-3.522143 -3.643337,-3.522143 0,0 1.490575,-0.528845 3.87748,-0.876185 2.48788,-0.362052 4.720162,-0.534168 4.898377,-0.547682 l 0,-0.0071 c 0,0 0.02679,-6.2e-5 0.0281,0 0.0023,-1.2e-4 0.03744,0 0.03744,0 z"
     id="path4695-1"
     inkscape:connector-curvature="0" />
  <path
     style="fill:#f4b825;fill-opacity:1;stroke:none;stroke-width:1.06456649"
     d="m 20.918978,38.090776 c 0,0 0.242965,-3.287558 4.342428,-6.825058 4.099471,-3.537501 5.796781,-3.180174 6.511442,-3.090839 0.714659,0.08934 -0.178663,4.466606 -0.178663,4.466606 l -0.134003,8.218684 c 0,0 -2.830597,-0.341242 -5.919749,-1.071625 -2.845798,-0.672852 -4.621455,-1.697769 -4.621455,-1.697769 z"
     id="path4695"
     inkscape:connector-curvature="0"
     sodipodi:nodetypes="cssccsc" />
  <path
     style="fill:#dd8523;fill-opacity:1;stroke:none;stroke-width:1.06456649"
     d="m 31.806349,28.119046 c 0.971028,0.02763 2.698499,0.49584 5.7731,3.148961 4.099463,3.537484 4.34378,6.822769 4.34378,6.822769 0,0 -1.777141,1.024498 -4.622945,1.697289 -3.089148,0.730384 -5.918267,1.072104 -5.918267,1.072104 l -0.05586,-3.428253 0,-9.279373 c 0.13735,-0.01483 0.289139,-0.03893 0.480164,-0.03348 z"
     id="path4695-5"
     inkscape:connector-curvature="0" />
  <path
     inkscape:connector-curvature="0"
     id="rect3212-0"
     d="M 31.65625,53 C 15.334431,53 9.0114663,58.704517 6.5625,64 L 32,64 57.65625,64 c -2.297586,-5.112042 -8.574745,-11 -26,-11 z"
     style="color:#000000;display:inline;overflow:visible;visibility:visible;opacity:1;fill:#80bbff;fill-opacity:1;fill-rule:nonzero;stroke:none;stroke-width:0.82602108;marker:none;enable-background:accumulate" />
</svg>

<svg xmlns="http://www.w3.org/2000/svg" xmlns:xlink="http://www.w3.org/1999/xlink" viewBox="0 0 64 64"><defs><linearGradient id="1"><stop stop-color="#90dbec"/><stop offset=".262" stop-color="#42baea"/><stop offset=".705" stop-color="#3689e6"/><stop offset="1" stop-color="#2b63a0"/></linearGradient><radialGradient r="20" cy="-41.631" cx="6.501" gradientTransform="matrix(0 3.42243-3.65065 0-129.21-72.09)" gradientUnits="userSpaceOnUse" id="0" xlink:href="#1"/><radialGradient xlink:href="#1" id="2" gradientUnits="userSpaceOnUse" gradientTransform="matrix(0 3.44203-3.67155 0-152.86-134.39)" cx="6.501" cy="-41.631" r="20"/></defs><g color="#000"><path d="m0 4v30 28l2 2h30 30l2-2v-28-30h-32-32" fill="#2f82e2"/><path d="m2 0l-2 1v3h32 32v-3l-2-1h-30-30" fill="#65c7ff"/></g><path d="m0 3v3l2-2" fill="#88dbff"/><path d="m64 6l-2-2 2-1z" fill="#4ba5f1"/><ellipse cy="-52.631" cx="7.507" transform="matrix(-.2315.97284-.93383-.3577 0 0)" rx="6.463" ry="6.409" fill="url(#2)" stroke="#276dbc" stroke-linejoin="round" stroke-linecap="round" color="#000" stroke-width=".883"/><g transform="matrix(.57596.15482-.08851.59733-5.404 10.791)"><g fill-rule="evenodd" color="#000"><circle r="25.986" cy="-226.57" cx="-88.74" transform="matrix(.38278 0 0 .39059 125.96 90.4)" fill="#2b3343"/><ellipse ry="9.458" rx="8.309" cy="-237.27" cx="-161.04" transform="matrix(.18255.16846-.2596.2813 56.47 92.68)" fill="#c1f4ff"/></g><path d="m96.83-4.04c1.042 1.131 1.678 2.606 1.678 4.216 0 3.565-3.093 6.452-6.902 6.452-3.81 0-6.891-2.888-6.891-6.452 0-1.459.515-2.807 1.387-3.888-1.669 1.419-2.718 3.469-2.718 5.745 0 4.284 3.711 7.755 8.29 7.755 4.579 0 8.29-3.471 8.29-7.755 0-2.458-1.226-4.652-3.132-6.073" opacity=".366" fill="#00dbde" fill-rule="evenodd" color="#000" id="3"/></g><g color="#000"><path d="m40.722 26.386c-.541 3.613 1.599 7.44 4.992 8.746 3.585 1.38 7.208-.579 8.105-4.363.224-.946.256-1.915.121-2.861-.791 1.694-2.377 2.974-4.487 3.348-3.56.632-7.324-1.524-8.731-4.87" fill="#276dbc"/><ellipse cy="9.206" cx="30.25" transform="matrix(.2315.97284.93383-.3577 0 0)" rx="6.426" ry="6.373" fill="url(#0)" stroke="#276dbc" stroke-linejoin="round" stroke-linecap="round" stroke-width=".883"/></g><g transform="matrix(-.57268.15394.08801.59393 68.22 10.885)"><g fill-rule="evenodd" color="#000"><circle r="25.986" cy="-226.57" cx="-88.74" transform="matrix(.38278 0 0 .39059 125.96 90.4)" fill="#2b3343"/><ellipse ry="9.458" rx="8.309" cy="-237.27" cx="-161.04" transform="matrix(-.11876.24656.32286.13034 150 68.44)" fill="#c1f4ff"/></g><use xlink:href="#3"/></g><path d="m22.251 26.391c.538 3.592-1.59 7.397-4.964 8.696-3.565 1.372-7.167-.576-8.06-4.338-.223-.941-.254-1.904-.121-2.845.786 1.684 2.363 2.957 4.461 3.329 3.539.628 7.282-1.515 8.681-4.842" fill="#276dbc" color="#000"/><path d="m31.779 37.486l.005.01c.208.024 4.168-3.13 7.216-2.496 2.924.608 3.66 4.989 3.66 4.989 0 0 1.23 2.969-.986 6.165-1.662 2.397-3.048 2.821-3.932 2.845-.122.004-.228-.01-.329-.02-.004 0-.007 0-.01 0-.762.071-2.43-.039-7.093-2.825-5.349-3.197-9.309-8.154-9.309-8.154 0 0 3.465 1.063 5.793.455 2.426-.634 4.734-.935 4.919-.959l-.005-.01c0 0 .029 0 .031 0 .003 0 .041 0 .041 0" fill="#001c3d" fill-opacity=".117"/><path d="m31.454 36.874v.007c.178.013 2.41.186 4.898.548 2.387.347 3.877.876 3.877.876 0 0-.205 1.696-3.643 3.522-2.579 1.37-4.03 1.611-4.842 1.626-.112 0-.203-.007-.29-.011-.003 0-.006 0-.009 0-.724.04-2.191-.023-5.189-1.614-3.438-1.826-3.643-3.522-3.643-3.522 0 0 1.491-.529 3.877-.876 2.488-.362 4.72-.534 4.898-.548v-.007c0 0 .027 0 .028 0 .002 0 .037 0 .037 0" fill="#c86f1d"/><path d="m20.919 38.09c0 0 .243-3.288 4.342-6.825 4.099-3.538 5.797-3.18 6.511-3.091.715.089-.179 4.467-.179 4.467l-.134 8.219c0 0-2.831-.341-5.92-1.072-2.846-.673-4.621-1.698-4.621-1.698" fill="#f4b825"/><path d="m31.806 28.12c.971.028 2.698.496 5.773 3.149 4.099 3.537 4.344 6.823 4.344 6.823 0 0-1.777 1.024-4.623 1.697-3.089.73-5.918 1.072-5.918 1.072l-.056-3.428v-9.279c.137-.015.289-.039.48-.033" fill="#dd8523"/><path d="m31.656 53c-16.322 0-22.645 5.705-25.09 11h25.438 25.656c-2.298-5.112-8.575-11-26-11" fill="#80bbff" color="#000"/></svg>
